svg/Pictogram/pictograms-aem-0017-rollers.svg

<?xml version="1.0" encoding="ISO-8859-1" standalone="yes"?>
<svg height="304.014" width="304.015">
  <metadata>
    <rdf:RDF xmlns:cc="http://web.resource.org/cc/" xmlns:dc="http://purl.org/dc/elements/1.1/" xmlns:rdf="http://www.w3.org/1999/02/22-rdf-syntax-ns#">
      <cc:Work rdf:about="">
        <dc:title></dc:title>
        <dc:description></dc:description>
        <dc:subject>
          <rdf:Bag>
            <rdf:li></rdf:li>
          </rdf:Bag>
        </dc:subject>
        <dc:publisher>
          <cc:Agent rdf:about="http://www.unece.org/trans/danger/publi/ghs/pictograms.html">
            <dc:title>Source: UNECE GHS of Classification and Labeling of Chemicals, Source: AEM Pictorial Database, Source: AEM Pictorial Database, Source: AEM Pictorial Database, Source: AEM Pictorial Database</dc:title>
          </cc:Agent>
        </dc:publisher>
        <dc:creator>
          <cc:Agent>
            <dc:title></dc:title>
          </cc:Agent>
        </dc:creator>
        <dc:rights>
          <cc:Agent>
            <dc:title></dc:title>
          </cc:Agent>
        </dc:rights>
        <dc:date></dc:date>
        <dc:format>image/svg+xml</dc:format>
        <dc:type rdf:resource="http://purl.org/dc/dcmitype/StillImage"/>
        <cc:license rdf:resource="http://en.wikipedia.org/wiki/Public_domain"/>
        <dc:language>en</dc:language>
      </cc:Work>
    </rdf:RDF>
  </metadata>
  <defs><marker id="ArrowEnd" markerHeight="3" markerUnits="strokeWidth" markerWidth="4" orient="auto" refX="0" refY="5" viewBox="0 0 10 10"><path d="M 0 0 L 10 5 L 0 10 z"/></marker><marker id="ArrowStart" markerHeight="3" markerUnits="strokeWidth" markerWidth="4" orient="auto" refX="10" refY="5" viewBox="0 0 10 10"><path d="M 10 0 L 0 5 L 10 10 z"/></marker> </defs>
  <g id="g2958" transform="matrix(1.3532768,0,0,1.3532781,-53.207834,-52.192858)">
    <path d="M 138.702 204.674C 143.694 199.319 159.19 191.698 159.19 191.698L 165.487 202.405L 139.03 219.038C 139.03 219.038 135.503 212.991 137.265 208.456C 137.483 207.885 137.991 205.436 138.702 204.67" style="stroke:none; fill-rule:evenodd; fill:#000000"/>
    <path d="M 157.425 209.209L 166.183 204.045L 171.663 213.37L 155.03 251.924C 155.03 251.924 146.714 249.28 145.706 242.096C 144.722 235.069 157.425 209.209 157.425 209.209" style="stroke:none; fill-rule:evenodd; fill:#000000"/>
    <path d="M 178.64 190.998C 173.651 187.409 170.655 181.803 170.655 175.19C 170.655 168.362 174.116 162.342 179.378 158.788L 179.347 158.936C 179.347 158.936 193.995 116.569 194.44 114.928C 194.94 113.084 195.237 109.752 195.226 108.788C 195.21 107.709 194.788 104.006 193.796 102.385C 192.397 100.112 163.218 52.0884 163.218 52.0884L 125.167 52.0884C 125.167 52.0884 157.296 105.01 158.179 106.772C 158.835 108.088 160.448 109.795 159.944 112.065C 159.397 114.526 158.386 115.557 157.929 116.096C 156.823 117.389 132.222 141.674 132.222 141.674C 132.222 141.674 91.4014 142.053 87.4954 141.799C 87.4954 141.799 89.3544 151.366 96.8154 154.022C 102.272 155.963 142.554 155.409 142.554 155.409L 147.597 155.432C 158.714 155.432 167.73 164.198 167.73 175.319C 167.73 181.327 165.097 186.717 160.925 190.409L 161.089 190.612C 161.089 190.612 184.198 233.569 190.065 236.76C 194.925 239.401 205.808 238.065 205.808 238.065L 178.53 191.002L 178.64 190.998" style="stroke:none; fill-rule:evenodd; fill:#000000"/>
    <path d="M 166.202 175.19C 166.202 185.327 157.983 193.545 147.851 193.545C 139.886 193.545 133.128 188.463 130.589 181.377C 128.046 188.463 121.288 193.545 113.323 193.545C 105.362 193.545 98.6044 188.463 96.0624 181.377C 93.5224 188.463 86.7654 193.545 78.8044 193.545C 68.6674 193.545 60.4484 185.327 60.4484 175.19C 60.4484 165.053 68.6634 156.838 78.8044 156.838C 86.7654 156.838 93.5224 161.916 96.0624 169.006C 98.6044 161.916 105.362 156.838 113.327 156.838C 121.288 156.838 128.046 161.916 130.589 169.006C 133.128 161.916 139.89 156.838 147.851 156.838C 157.987 156.838 166.202 165.053 166.202 175.19zM 78.5504 160.581C 70.4804 160.581 63.9374 167.12 63.9374 175.19C 63.9374 183.26 70.4804 189.803 78.5504 189.803C 86.6204 189.803 93.1594 183.26 93.1594 175.19C 93.1594 167.12 86.6204 160.581 78.5504 160.581zM 113.073 160.581C 105.003 160.581 98.4604 167.12 98.4604 175.19C 98.4604 183.26 105.003 189.803 113.073 189.803C 121.144 189.803 127.683 183.26 127.683 175.19C 127.683 167.12 121.144 160.581 113.073 160.581zM 147.597 160.581C 139.526 160.581 132.987 167.12 132.987 175.19C 132.987 183.26 139.526 189.803 147.597 189.803C 155.667 189.803 162.21 183.26 162.21 175.19C 162.21 167.12 155.667 160.581 147.597 160.581" style="stroke:none; fill-rule:evenodd; fill:#000000"/>
    <path d="M 243.565 175.19C 243.565 185.327 235.347 193.545 225.21 193.545C 217.249 193.545 210.491 188.463 207.948 181.377C 205.409 188.463 198.651 193.545 190.687 193.545C 180.55 193.545 172.331 185.327 172.331 175.19C 172.331 165.053 180.55 156.838 190.687 156.838C 198.651 156.838 205.409 161.916 207.948 169.006C 210.491 161.916 217.249 156.838 225.21 156.838C 235.347 156.838 243.565 165.053 243.565 175.19zM 224.96 160.581C 216.89 160.581 210.347 167.12 210.347 175.19C 210.347 183.26 216.89 189.803 224.96 189.803C 233.03 189.803 239.573 183.26 239.573 175.19C 239.573 167.12 233.03 160.581 224.96 160.581zM 190.437 160.581C 182.366 160.581 175.823 167.12 175.823 175.19C 175.823 183.26 182.366 189.803 190.437 189.803C 198.507 189.803 205.05 183.26 205.05 175.19C 205.05 167.12 198.507 160.581 190.437 160.581" style="stroke:none; fill-rule:evenodd; fill:#000000"/>
    <path d="M 29.6204 265.393L 2.62042 265.393" style="stroke:#000000; stroke-width:0.5; fill:none"/>
    <path d="M 38.6204 274.393L 38.6204 301.393" style="stroke:#000000; stroke-width:0.5; fill:none"/>
    <path d="M 29.6204 38.6204L 2.62042 38.6204" style="stroke:#000000; stroke-width:0.5; fill:none"/>
    <path d="M 38.6204 29.6204L 38.6204 2.62042" style="stroke:#000000; stroke-width:0.5; fill:none"/>
    <path d="M 274.394 38.6204L 301.394 38.6204" style="stroke:#000000; stroke-width:0.5; fill:none"/>
    <path d="M 265.394 29.6204L 265.394 2.62042" style="stroke:#000000; stroke-width:0.5; fill:none"/>
    <path d="M 274.394 265.393L 301.394 265.393" style="stroke:#000000; stroke-width:0.5; fill:none"/>
    <path d="M 265.394 274.393L 265.394 301.393" style="stroke:#000000; stroke-width:0.5; fill:none"/>
  </g>
</svg>

<svg viewBox="0 0 304.01 304.01"><g transform="matrix(1.35328 0 0 1.35328-53.21-52.19)" fill-rule="evenodd"><path d="m138.7 204.67c4.992-5.355 20.488-12.976 20.488-12.976l6.297 10.707-26.457 16.633c0 0-3.527-6.05-1.765-10.582.218-.571.726-3.02 1.437-3.786"/><path d="m157.43 209.21l8.758-5.164 5.48 9.325-16.633 38.554c0 0-8.316-2.644-9.324-9.828-.984-7.03 11.719-32.887 11.719-32.887"/><path d="m178.64 191c-4.989-3.589-7.985-9.195-7.985-15.808 0-6.828 3.461-12.848 8.723-16.402l-.031.148c0 0 14.648-42.37 15.09-44.01.5-1.844.797-5.176.786-6.14-.016-1.079-.438-4.782-1.43-6.403-1.399-2.273-30.578-50.3-30.578-50.3h-38.05c0 0 32.13 52.922 33.01 54.684.656 1.316 2.269 3.02 1.765 5.293-.547 2.461-1.558 3.492-2.01 4.03-1.106 1.293-25.707 25.578-25.707 25.578 0 0-40.821.379-44.727.125 0 0 1.859 9.567 9.32 12.223 5.457 1.941 45.739 1.387 45.739 1.387l5.04.023c11.12 0 20.13 8.766 20.13 19.887 0 6.01-2.633 11.398-6.805 15.09l.164.203c0 0 23.11 42.957 28.976 46.15 4.86 2.641 15.743 1.305 15.743 1.305l-27.28-47.06.11-.004"/><path d="m166.2 175.19c0 10.137-8.219 18.355-18.351 18.355-7.965 0-14.723-5.082-17.262-12.168-2.543 7.086-9.301 12.168-17.266 12.168-7.961 0-14.719-5.082-17.261-12.168-2.54 7.086-9.297 12.168-17.258 12.168-10.137 0-18.356-8.218-18.356-18.355 0-10.137 8.215-18.352 18.356-18.352 7.961 0 14.718 5.078 17.258 12.168 2.542-7.09 9.3-12.168 17.265-12.168 7.961 0 14.719 5.078 17.262 12.168 2.539-7.09 9.301-12.168 17.262-12.168 10.136 0 18.351 8.215 18.351 18.352m-87.65-14.609c-8.07 0-14.613 6.539-14.613 14.609 0 8.07 6.543 14.613 14.613 14.613 8.07 0 14.609-6.543 14.609-14.613 0-8.07-6.539-14.609-14.609-14.609m34.523 0c-8.07 0-14.613 6.539-14.613 14.609 0 8.07 6.543 14.613 14.613 14.613 8.07 0 14.61-6.543 14.61-14.613 0-8.07-6.539-14.609-14.61-14.609m34.524 0c-8.07 0-14.61 6.539-14.61 14.609 0 8.07 6.539 14.613 14.61 14.613 8.07 0 14.613-6.543 14.613-14.613 0-8.07-6.543-14.609-14.613-14.609"/><path d="m243.56 175.19c0 10.137-8.218 18.355-18.355 18.355-7.961 0-14.719-5.082-17.262-12.168-2.539 7.086-9.297 12.168-17.261 12.168-10.137 0-18.356-8.218-18.356-18.355 0-10.137 8.219-18.352 18.356-18.352 7.964 0 14.722 5.078 17.261 12.168 2.543-7.09 9.301-12.168 17.262-12.168 10.137 0 18.355 8.215 18.355 18.352m-18.605-14.609c-8.07 0-14.613 6.539-14.613 14.609 0 8.07 6.543 14.613 14.613 14.613 8.07 0 14.613-6.543 14.613-14.613 0-8.07-6.543-14.609-14.613-14.609m-34.523 0c-8.07 0-14.614 6.539-14.614 14.609 0 8.07 6.543 14.613 14.614 14.613 8.07 0 14.613-6.543 14.613-14.613 0-8.07-6.543-14.609-14.613-14.609"/></g></svg>
